!!!OTL: DER MEISCHTER SCHICKT DER JOCKELE
!!!ARE: Europa, Mitteleuropa, Deutschland; France, Elsass
!!!SCT: E1745
!!!YEM: Copyright 1995, estate of Helmut Schaffrath.
**kern
*ICvox
*Ivox
*M2/4
*k[f#]
*G:
{8d
=1
8d
8g
8g
8g
=2
8f#
16a
16a
8a}
{8a
=3
8b
8b
8dd
8b
=4
4a
4a}
=5
{8a
8a
8b
8cc
=6
4dd
4dd
=7
2gg
=8
2dd}
=9
{8b
16b
16b
8a
8a
=10
8g
8f#
8g}
==
!!!AGN: Scherz -, Spiel - Lied, Zaehl - Geschichte
!!!ONB: ESAC (Essen Associative Code) Database: ERK3
!!!AMT: simple duple
!!!AIN: vox
!!!EED: Helmut Schaffrath
!!!EEV: 1.0
*-
